assets/images/item_6423.svg

<?xml version="1.0" standalone="no"?><!DOCTYPE svg PUBLIC "-//W3C//DTD SVG 1.1//EN" "http://www.w3.org/Graphics/SVG/1.1/DTD/svg11.dtd"><svg xmlns="http://www.w3.org/2000/svg" version="1.1" width="193.1px" height="133.6px" viewBox="0 -11 193.1 133.6" style="top:-11px"><desc>70%</desc><defs/><g id="Polygon10094"><path d="m43.5 25.5L21.2 71.6H10.8l22.2-46H2.1v-10h41.4v9.9zm5 18.2c0-17.6 6.1-29.1 19.9-29.1c13.8 0 19.9 11.5 19.9 28.9c0 17.6-6.3 29-20.1 29c-13.7 0-19.7-11.4-19.7-28.8zm29.7.2c0-11.2-2.9-20.3-10-20.3c-6.5 0-9.6 7.3-9.6 19.6c0 12.5 3.3 20.4 9.9 20.4c6.7 0 9.7-8.3 9.7-19.7zm28-31.2c8.5 0 14.7 5.8 14.7 14.4c0 8.5-6.2 14.5-14.7 14.5c-8 0-14.2-6-14.2-14.5c0-8.6 6.2-14.4 14.2-14.4zm4.5 58.9h-6l35.9-57h6.1l-36 57zm-4.3-52.4c-4.5 0-7.5 3.1-7.5 7.9c0 4.7 3 8 7.5 8c4.4 0 7.6-3.3 7.6-8c0-4.8-3.2-7.9-7.6-7.9zM143 44.8c8.4 0 14.6 5.8 14.6 14.5c0 8.5-6.2 14.5-14.6 14.5c-8.1 0-14.3-6-14.3-14.5c0-8.7 6.2-14.5 14.3-14.5zm.1 6.5c-4.5 0-7.5 3.2-7.5 7.9c0 4.8 3 8.1 7.5 8.1c4.4 0 7.6-3.3 7.6-8.1c0-4.7-3.2-7.9-7.6-7.9z" stroke="none" fill="#000"/></g></svg>

<?xml version="1.0" standalone="no"?><!DOCTYPE svg PUBLIC "-//W3C//DTD SVG 1.1//EN" "http://www.w3.org/Graphics/SVG/1.1/DTD/svg11.dtd"><svg xmlns="http://www.w3.org/2000/svg" version="1.1" width="193.1px" height="133.6px" viewBox="0 -11 193.1 133.6" style="top:-11px">  <desc>70%</desc>  <defs/>  <g id="Polygon10094">    <path d="M 43.5 25.5 L 21.2 71.6 L 10.8 71.6 L 33 25.6 L 2.1 25.6 L 2.1 15.6 L 43.5 15.6 L 43.5 25.5 Z M 48.5 43.7 C 48.5 26.1 54.6 14.6 68.4 14.6 C 82.2 14.6 88.3 26.1 88.3 43.5 C 88.3 61.1 82 72.5 68.2 72.5 C 54.5 72.5 48.5 61.1 48.5 43.7 Z M 78.2 43.9 C 78.2 32.7 75.3 23.6 68.2 23.6 C 61.7 23.6 58.6 30.9 58.6 43.2 C 58.6 55.7 61.9 63.6 68.5 63.6 C 75.2 63.6 78.2 55.3 78.2 43.9 Z M 106.2 12.7 C 114.7 12.7 120.9 18.5 120.9 27.1 C 120.9 35.6 114.7 41.6 106.2 41.6 C 98.2 41.6 92 35.6 92 27.1 C 92 18.5 98.2 12.7 106.2 12.7 Z M 110.7 71.6 L 104.7 71.6 L 140.6 14.6 L 146.7 14.6 L 110.7 71.6 Z M 106.4 19.2 C 101.9 19.2 98.9 22.3 98.9 27.1 C 98.9 31.8 101.9 35.1 106.4 35.1 C 110.8 35.1 114 31.8 114 27.1 C 114 22.3 110.8 19.2 106.4 19.2 Z M 143 44.8 C 151.4 44.8 157.6 50.6 157.6 59.3 C 157.6 67.8 151.4 73.8 143 73.8 C 134.9 73.8 128.7 67.8 128.7 59.3 C 128.7 50.6 134.9 44.8 143 44.8 Z M 143.1 51.3 C 138.6 51.3 135.6 54.5 135.6 59.2 C 135.6 64 138.6 67.3 143.1 67.3 C 147.5 67.3 150.7 64 150.7 59.2 C 150.7 54.5 147.5 51.3 143.1 51.3 Z " stroke="none" fill="#000"/>  </g></svg>
